X: 22308
T: La Russe
R: polka
M: 2/4
K: Gmajor
G/G/|:GB Bd|dg gf/g/|ag ec|ed d/c/B/A/|
GB Bd|dg gf/g/|ed dF|1 AG GG/G/:|2 AG GA||
|:Ad dB|Aa af|g3/2f/ ge|f/g/a/g/ fA|
Ad dB|Aa af|g3/2f/ ge|1 d2 dA:|2 d3/2e/ d/c/B/A/||

